src/pos-icons/lightbulb-group-off-outline.svg

<svg height="24" viewBox="0 0 24 24" width="24" xmlns="http://www.w3.org/2000/svg"><path d="m22.11 21.46-19.72-19.73-1.28 1.27 4.09 4.09c-1.95.41-3.35 2.18-3.2 4.22.12 1.31.86 2.48 2 3.14v1.55c0 .55.45 1 1 1h2v-2.12c-1.28-1.3-2-3.05-2-4.88 0-.89.18-1.77.5-2.6l1.62 1.6c-.38 1.84.28 3.8 1.88 5v2c0 .55.45 1 1 1h4c.31 0 .57-.14.75-.36l2.25 2.25v.11c0 .34-.06.68-.17 1h1.17.09l2.75 2.73zm-12.88-10.34 1.64 1.64c-.76-.3-1.34-.9-1.64-1.64m3.77 3.88h-2v-2.11l2 2zm-2.43-7.63-1.44-1.44c1.73-1.21 4.09-1.26 5.87.07 1.26.94 2 2.43 2 4 0 1.05-.33 2.05-.92 2.88l-1.45-1.45c.23-.43.37-.93.37-1.43 0-1.66-1.33-3-3-3-.5 0-1 .14-1.43.37m6.93 6.94c.97-1.22 1.5-2.74 1.5-4.31 0-1.04-.23-2.06-.68-3 1.31.11 2.48.85 3.14 2 1.11 1.9.45 4.34-1.46 5.45v1.55c0 .22-.09.42-.21.59zm-7.5 3.69h4v1c0 .55-.45 1-1 1h-2c-.55 0-1-.45-1-1zm-3 1c0 .34.06.68.17 1h-1.17c-.55 0-1-.45-1-1v-1h2z"/></svg>

<?xml version="1.0" encoding="UTF-8"?><!DOCTYPE svg PUBLIC "-//W3C//DTD SVG 1.1//EN" "http://www.w3.org/Graphics/SVG/1.1/DTD/svg11.dtd"><svg xmlns="http://www.w3.org/2000/svg" xmlns:xlink="http://www.w3.org/1999/xlink" version="1.1" id="mdi-lightbulb-group-off-outline" width="24" height="24" viewBox="0 0 24 24"><path d="M22.11 21.46L2.39 1.73L1.11 3L5.2 7.09C3.25 7.5 1.85 9.27 2 11.31C2.12 12.62 2.86 13.79 4 14.45V16C4 16.55 4.45 17 5 17H7V14.88C5.72 13.58 5 11.83 5 10C5 9.11 5.18 8.23 5.5 7.4L7.12 9C6.74 10.84 7.4 12.8 9 14V16C9 16.55 9.45 17 10 17H14C14.31 17 14.57 16.86 14.75 16.64L17 18.89V19C17 19.34 16.94 19.68 16.83 20H18C18.03 20 18.06 20 18.09 20L20.84 22.73L22.11 21.46M9.23 11.12L10.87 12.76C10.11 12.46 9.53 11.86 9.23 11.12M13 15H11V12.89L13 14.89V15M10.57 7.37L9.13 5.93C10.86 4.72 13.22 4.67 15 6C16.26 6.94 17 8.43 17 10C17 11.05 16.67 12.05 16.08 12.88L14.63 11.43C14.86 11 15 10.5 15 10C15 8.34 13.67 7 12 7C11.5 7 11 7.14 10.57 7.37M17.5 14.31C18.47 13.09 19 11.57 19 10C19 8.96 18.77 7.94 18.32 7C19.63 7.11 20.8 7.85 21.46 9C22.57 10.9 21.91 13.34 20 14.45V16C20 16.22 19.91 16.42 19.79 16.59L17.5 14.31M10 18H14V19C14 19.55 13.55 20 13 20H11C10.45 20 10 19.55 10 19V18M7 19C7 19.34 7.06 19.68 7.17 20H6C5.45 20 5 19.55 5 19V18H7V19Z" /></svg>
